X:1
T:Joy-Bells
T:Joy-Bells
T:Charles Hutchinson Gabriel
T:Claire Sumner, 1909
T:Public Domain Courtesy of the Cyber Hymnal™
T:Public Domain Courtesy of the Cyber Hymnal™
C:Charles Hutchinson Gabriel
Z:Public Domain
Z:Courtesy of the Cyber Hymnal™
%%score ( 1 2 ) ( 3 4 )
L:1/8
Q:1/4=103
M:6/8
K:Bb
V:1 treble 
V:2 treble 
V:3 bass 
V:4 bass 
V:1
 [DB]2 [DF] [DB]2 [DF] | [EG]2 [EB] [DF]3 | [CA]2 [EG] [DF]2 [CE] | [B,D]6 | %4
w: 1.~East- er day has|come once more,|Ring, ye joy- bells,|ring!|
w: 2.~Spring comes smil- ing|to the land,|Ring, ye joy- bells,|ring!|
w: 3.~Spread the seeds of|hope a- broad,|Ring, ye joy- bells,|ring!|
 [DB]2 [DF] [DB]2 [DF] | [EG]2 [EB] [DF]3 | [Fc]2 F [=Ec]2 [CE] | [CF]6 | [Ec]2 [E=B] [Ec]2 [E_B] | %9
w: Peal the tid- ings|o’er and o’er,|Ring, ye joy- bells,|ring!|Night and gloom have|
w: Fair and pure the|lil- ies stand,|Ring, ye joy- bells,|ring!|Birds are sing- ing|
w: Peal the tri- umph|of the Lord,|Ring, ye joy- bells,|ring!|Com- fort ev- ery|
 [EA]2 [E^G] [EA]3 | [DB]2 [Dc] [EB]2 [EG] | [DF]2 [^C=E] [DF]3 | [C=E]2 [C^D] [CE]2 [CF] | %13
w: passed a- way,|Death is end- ed,|and de- cay;|Je- sus Christ is|
w: clear and sweet,|Blos- soms spring up|’neath our feet,|Heav’n bends low the|
w: ach- ing heart,|Dry the tears of|pain that start,|Bid des- pair and|
 [=EG]2 [FA] ([GB]2 [Bd]) | [Ac]2 [GB] [FA]2 [=EG] | F6 ||"^Refrain" [Fd]3 [DB]3 | [DF]4 [DB][Dc] | %18
w: ris’n to- day; *|Ring, ye joy- bells,|ring!|Ring, ring,|ring, mer- ry|
w: earth to greet; *|Ring, ye joy- bells,|ring!|||
w: grief de- part; *|Ring, ye joy- bells,|ring!|||
 [EB]3 [EA]3 | [CE]6 | [Fe]3 [Fc]3 | [EA]4 [EG][EA] | [DB]2 [Dc] [EB]2 [EG] | [DF]6 | [Fd]3 [DB]3 | %25
w: joy- bells,|ring!|Sing, sing,|sing, hap- py|voic- es, sweet- ly|sing!|Christ a-|
w: |||||||
w: |||||||
 [DF]4 [DB][Dc] | [EB]3 [EG]3 | [Ge]6 | [Fd]3 F3 | [=Ed]4 [Ec][EB] | [EA]2 [E^G] [EA]2 [Ec] | %31
w: rose o’er the|last of|foes;|Glad bells,|ring; hap- py|voic- es, sweet- ly|
w: ||||||
w: ||||||
 [DB]3- [DB]2 |] %32
w: sing. *|
w: |
w: |
V:2
 x6 | x6 | x6 | x6 | x6 | x6 | x2 F x3 | x6 | x6 | x6 | x6 | x6 | x6 | x6 | x6 | F6 || x6 | x6 | %18
 x6 | x6 | x6 | x6 | x6 | x6 | x6 | x6 | x6 | x6 | x3 F3 | x6 | x6 | x5 |] %32
V:3
 [B,,F,]2 [B,,B,] [B,,F,]2 [B,,B,] | [B,,B,]2 [B,,G,] [B,,B,]3 | F,2 [F,A,] [F,B,]2 F, | [B,,F,]6 | %4
w: ~ ~ ~ ~|~ ~ ~|~ ~ ~ ~|~|
 [B,,F,]2 [B,,B,] [B,,F,]2 [B,,B,] | [B,,B,]2 [B,,G,] [B,,B,]3 | [A,,C]2 [A,,C] [G,,B,]2 [C,B,] | %7
w: ~ ~ ~ ~|~ ~ ~|~ ~ ~ ~|
 [F,A,]6 | [F,A,]2 [F,^G,] [F,A,]2 [F,=G,] | [F,C]2 [F,=B,] [F,C]3 | %10
w: ~|~ ~ ~ ~|~ ~ ~|
 [B,,B,]2 [B,,F,] [B,,G,]2 [B,,B,] | [B,,B,]2 [B,,B,] [B,,B,]3 | [C,G,]2 [C,^F,] [C,G,]2 [C,A,] | %13
w: ~ ~ ~ ~|~ ~ ~|~ ~ ~ ~|
 [C,C]2 [C,C] [C,C]3 | [C,C]2 [C,C] [C,C]2 [C,B,] | [F,A,]6 || [B,,B,]2 [B,,B,] [B,,F,]2 [B,,F,] | %17
w: ~ ~ ~|~ ~ ~ ~|~|Ring, O sweet- ly|
 [B,,B,]2 [B,,B,] [B,,B,]2 [B,,B,] | [F,C]3 [F,C]3 | [F,A,]2 [F,A,] [F,A,]2 z | %20
w: ring, ring, mer- ry|joy- bells,|ring, O ring!|
 [F,C]2 [F,C] [F,A,]2 [F,A,] | [F,C]2 [F,C] [F,C]2 [F,C] | [B,,B,]2 [B,,F,] [B,,G,]2 [B,,B,] | %23
w: Sing, O sweet- ly|sing, O hap- py|voic- es, sweet- ly|
 [B,,B,]2 [B,,B,] [B,,B,]2 z | [B,,B,]2 [B,,B,] [B,,F,]2 [B,,F,] | %25
w: sing, O sing!|Christ a- rose, a|
 [B,,B,]2 [B,,B,] [B,,B,]2 [B,,B,] | [E,G,]3 [E,B,]3 | [E,B,]2 [E,B,] [E,B,]2 z | %28
w: vic- tor o’er the|last of|all His foes;|
 [F,B,]2 [F,B,] [D,B,]2 [D,B,] | [C,B,]2 [C,B,] [C,B,]2 [C,C] | [F,C]2 [F,=B,] [F,C]2 F, | %31
w: Glad bells, ring, O|ring, and hap- py|voic- es, sweet- ly|
 [B,,F,]3- [B,,F,]2 |] %32
w: sing! *|
V:4
 x6 | x6 | F,2 x F, x2 | x6 | x6 | x6 | x6 | x6 | x6 | x6 | x6 | x6 | x6 | x6 | x6 | x6 || x6 | %17
 x6 | x6 | x6 | x6 | x6 | x6 | x6 | x6 | x6 | x6 | x6 | x6 | x6 | x5 F, | x5 |] %32

